learning-site/svg (90).svg

<svg xmlns="http://www.w3.org/2000/svg" xmlns:xlink="http://www.w3.org/1999/xlink" viewBox="0 0 100 118" version="1.1"><!-- Generator: Sketch 51.3 (57544) - http://www.bohemiancoding.com/sketch --><title>create-backend-services-in-azure</title><desc>Created with Sketch.</desc><defs><filter x="-2.2%" y="-1.7%" width="104.3%" height="106.8%" filterUnits="objectBoundingBox" id="filter-1"><feOffset dx="0" dy="2" in="SourceAlpha" result="shadowOffsetOuter1"></feOffset><feColorMatrix values="0 0 0 0 0   0 0 0 0 0   0 0 0 0 0  0 0 0 0.1 0" type="matrix" in="shadowOffsetOuter1" result="shadowMatrixOuter1"></feColorMatrix><feMerge><feMergeNode in="shadowMatrixOuter1"></feMergeNode><feMergeNode in="SourceGraphic"></feMergeNode></feMerge></filter></defs><g id="Badges-FINAL" stroke="none" stroke-width="1" fill="none" fill-rule="evenodd"><g id="Create-backend-services-in-Azure" transform="translate(-577.000000, -118.000000)"><g id="create-backend-services-in-azure" transform="translate(577.000000, 118.000000)"><path d="M44.7425,3.49663266 C46.3745,2.49887755 48.1865,2 50,2 C51.8135,2 53.627,2.49887755 55.256,3.49663266 L92.591,26.3316189 C95.933,28.3773408 98,32.2031485 98,36.3529027 L98,81.6470973 C98,85.7952317 95.933,89.6242789 92.591,91.6683811 L55.256,114.504987 C53.627,115.501122 51.8135,116 50,116 C48.1865,116 46.3745,115.501122 44.7425,114.504987 L7.409,91.6683811 C4.0655,89.6242789 2,85.7952317 2,81.6470973 L2,36.3529027 C2,32.2031485 4.0655,28.3773408 7.409,26.3316189 L44.7425,3.49663266 Z" id="Trophy-1" fill="#55A2FF"></path><g id="server-rack" filter="url(#filter-1)" transform="translate(27.486478, 29.500000)" fill-rule="nonzero"><g id="seperators" transform="translate(6.000000, 16.000000)" fill="#7C7C7C"><rect id="Rectangle-path" x="0" y="0" width="2" height="9"></rect><rect id="Rectangle-path" x="32" y="0" width="2" height="9"></rect><rect id="Rectangle-path" x="0" y="19" width="2" height="9"></rect><rect id="Rectangle-path" x="32" y="19" width="2" height="9"></rect></g><g id="1"><rect id="Rectangle-path" fill="#E1E4E1" x="0" y="0" width="46" height="18" rx="1"></rect><path d="M1.36439935,0.230602074 L22.9695561,8.98786697 C22.9830831,8.99325803 30.3866232,11.3478298 45.1801765,16.0515822 C45.706534,16.2158756 45.9976636,16.7764555 45.8304326,17.3039284 C45.6985231,17.7200915 45.3130127,18.0049624 44.877378,18.0081091 L1,18.325052 C0.44771525,18.3290414 1.72115081e-14,17.8680307 1.66533454e-14,17.2953559 L6.39488462e-14,1.18695494 C6.55980567e-14,0.614280118 0.44771525,0.153102326 1,0.156885509 C1.12469085,0.157739649 1.2482819,0.182743809 1.36439935,0.230602074 Z" id="Rectangle-path" fill="#D3DAD8"></path><circle id="Oval" fill="#72C472" cx="37" cy="9" r="2"></circle><path d="M11,10 L7,10 C6.44771525,10 6,9.55228475 6,9 C6,8.44771525 6.44771525,8 7,8 L11,8 C11.5522847,8 12,8.44771525 12,9 C12,9.55228475 11.5522847,10 11,10 Z" id="Shape" fill="#949697"></path><path d="M21,10 L17,10 C16.4477153,10 16,9.55228475 16,9 C16,8.44771525 16.4477153,8 17,8 L21,8 C21.5522847,8 22,8.44771525 22,9 C22,9.55228475 21.5522847,10 21,10 Z" id="Shape" fill="#949697"></path></g><g id="2" transform="translate(0.000000, 20.000000)"><rect id="Rectangle-path" fill="#E1E4E1" x="0" y="0" width="46" height="18" rx="1"></rect><path d="M1.36439935,0.230602074 L22.9695561,8.98786697 C22.9830831,8.99325803 30.3866232,11.3478298 45.1801765,16.0515822 C45.706534,16.2158756 45.9976636,16.7764555 45.8304326,17.3039284 C45.6985231,17.7200915 45.3130127,18.0049624 44.877378,18.0081091 L1,18.325052 C0.44771525,18.3290414 1.72115081e-14,17.8680307 1.66533454e-14,17.2953559 L6.39488462e-14,1.18695494 C6.55980567e-14,0.614280118 0.44771525,0.153102326 1,0.156885509 C1.12469085,0.157739649 1.2482819,0.182743809 1.36439935,0.230602074 Z" id="Rectangle-path" fill="#D3DAD8"></path><circle id="Oval" fill="#72C472" cx="37" cy="9" r="2"></circle><path d="M11,10 L7,10 C6.44771525,10 6,9.55228475 6,9 C6,8.44771525 6.44771525,8 7,8 L11,8 C11.5522847,8 12,8.44771525 12,9 C12,9.55228475 11.5522847,10 11,10 Z" id="Shape" fill="#949697"></path><path d="M21,10 L17,10 C16.4477153,10 16,9.55228475 16,9 C16,8.44771525 16.4477153,8 17,8 L21,8 C21.5522847,8 22,8.44771525 22,9 C22,9.55228475 21.5522847,10 21,10 Z" id="Shape" fill="#949697"></path></g><g id="3" transform="translate(0.000000, 40.000000)"><rect id="Rectangle-path" fill="#E1E4E1" x="0" y="0" width="46" height="18" rx="1"></rect><path d="M1.36439935,0.230602074 L22.9695561,8.98786697 C22.9830831,8.99325803 30.3866232,11.3478298 45.1801765,16.0515822 C45.706534,16.2158756 45.9976636,16.7764555 45.8304326,17.3039284 C45.6985231,17.7200915 45.3130127,18.0049624 44.877378,18.0081091 L1,18.325052 C0.44771525,18.3290414 1.72115081e-14,17.8680307 1.66533454e-14,17.2953559 L6.39488462e-14,1.18695494 C6.55980567e-14,0.614280118 0.44771525,0.153102326 1,0.156885509 C1.12469085,0.157739649 1.2482819,0.182743809 1.36439935,0.230602074 Z" id="Rectangle-path" fill="#D3DAD8"></path><circle id="Oval" fill="#72C472" cx="37" cy="9" r="2"></circle><path d="M11,10 L7,10 C6.44771525,10 6,9.55228475 6,9 C6,8.44771525 6.44771525,8 7,8 L11,8 C11.5522847,8 12,8.44771525 12,9 C12,9.55228475 11.5522847,10 11,10 Z" id="Shape" fill="#949697"></path><path d="M21,10 L17,10 C16.4477153,10 16,9.55228475 16,9 C16,8.44771525 16.4477153,8 17,8 L21,8 C21.5522847,8 22,8.44771525 22,9 C22,9.55228475 21.5522847,10 21,10 Z" id="Shape" fill="#949697"></path></g></g><g id="sparks" transform="translate(8.986478, 39.000000)" stroke="#FFFFFF" stroke-linecap="round" stroke-width="3"><g id="Group" transform="translate(6.453354, 20.140741) rotate(-90.000000) translate(-6.453354, -20.140741) translate(-13.046646, 14.140741)"><path d="M19.3053166,8.83147358 L19.3053166,0.831473578" id="Line"></path><path d="M36.4665148,10.903061 L37.6187673,8.83147358" id="Line-Copy-2"></path><path d="M0.839613502,10.903061 L1.99186601,8.83147358" id="Line-Copy-3" transform="translate(1.491866, 9.831474) scale(1, -1) translate(-1.491866, -9.831474) "></path><path d="M12.5652307,10.1613809 L9.03003541,3.86273411" id="Line" transform="translate(10.773591, 6.966447) rotate(14.000000) translate(-10.773591, -6.966447) "></path><path d="M29.6286813,10.1613809 L26.093486,3.86273411" id="Line-Copy" transform="translate(27.837042, 6.966447) scale(1, -1) rotate(14.000000) translate(-27.837042, -6.966447) "></path></g><g id="Group-Copy" transform="translate(76.993226, 20.140741) scale(-1, 1) rotate(-90.000000) translate(-76.993226, -20.140741) translate(57.493226, 14.140741)"><path d="M19.3053166,8.83147358 L19.3053166,0.831473578" id="Line"></path><path d="M36.4665148,10.903061 L37.6187673,8.83147358" id="Line-Copy-2"></path><path d="M0.839613502,10.903061 L1.99186601,8.83147358" id="Line-Copy-3" transform="translate(1.491866, 9.831474) scale(1, -1) translate(-1.491866, -9.831474) "></path><path d="M12.5652307,10.1613809 L9.03003541,3.86273411" id="Line" transform="translate(10.773591, 6.966447) rotate(14.000000) translate(-10.773591, -6.966447) "></path><path d="M29.6286813,10.1613809 L26.093486,3.86273411" id="Line-Copy" transform="translate(27.837042, 6.966447) scale(1, -1) rotate(14.000000) translate(-27.837042, -6.966447) "></path></g></g><g id="Azure-Hex-Border" stroke="#0078D4" stroke-width="4"><path d="M45.5620172,3.25834249 L6.67338401,26.8942953 C3.79673288,28.6432593 2,31.9508238 2,35.5582677 L2,82.4417323 C2,86.0486597 3.79764663,89.3586805 6.67318764,91.1055853 L45.560618,114.742485 C46.9289662,115.572418 48.4546283,116 50,116 C51.5458817,116 53.0723633,115.572188 54.4362178,114.743457 L93.3268764,91.1055464 C96.2016145,89.3583456 98,86.0476286 98,82.4417323 L98,35.5582677 C98,31.9518547 96.202529,28.6435953 93.3268966,26.8944659 L54.4351916,3.25759524 C53.0721095,2.42798656 51.5462432,2 50,2 C48.4543284,2 46.9293388,2.42772325 45.5620146,3.25834407 Z M45.5620146,3.25834407 C45.5619597,3.25837737 45.5619049,3.25841067 45.5618501,3.25844398 L45.5621963,3.25823359 L45.5620172,3.25834249 Z"></path></g></g></g></g></svg>

<svg xmlns="http://www.w3.org/2000/svg" viewBox="0 0 100 118"><defs><filter x="-2.2%" y="-1.7%" width="104.3%" height="106.8%" filterUnits="objectBoundingBox" id="a"><feOffset dy="2" in="SourceAlpha" result="shadowOffsetOuter1"/><feColorMatrix values="0 0 0 0 0 0 0 0 0 0 0 0 0 0 0 0 0 0 0.1 0" in="shadowOffsetOuter1" result="shadowMatrixOuter1"/><feMerge><feMergeNode in="shadowMatrixOuter1"/><feMergeNode in="SourceGraphic"/></feMerge></filter></defs><g fill="none" fill-rule="evenodd"><path d="M44.742 3.497A10.056 10.056 0 0 1 50 2c1.813 0 3.627.499 5.256 1.497l37.335 22.835C95.933 28.377 98 32.203 98 36.352v45.295c0 4.148-2.067 7.977-5.409 10.021l-37.335 22.837A10.056 10.056 0 0 1 50 116c-1.813 0-3.626-.499-5.258-1.495L7.41 91.668C4.066 89.624 2 85.795 2 81.648V36.352c0-4.15 2.066-7.976 5.409-10.021L44.743 3.497z" fill="#55A2FF"/><g filter="url(#a)" transform="translate(27.486 29.5)" fill-rule="nonzero"><g fill="#7C7C7C"><path d="M6 16h2v9H6zM38 16h2v9h-2zM6 35h2v9H6zM38 35h2v9h-2z"/></g><rect fill="#E1E4E1" width="46" height="18" rx="1"/><path d="M1.364.23L22.97 8.989l22.21 7.064a.995.995 0 0 1 .65 1.252 1.01 1.01 0 0 1-.953.704L1 18.325c-.552.004-1-.457-1-1.03V1.187C0 .614.448.153 1 .157c.125 0 .248.026.364.074z" fill="#D3DAD8"/><circle fill="#72C472" cx="37" cy="9" r="2"/><path d="M11 10H7a1 1 0 1 1 0-2h4a1 1 0 0 1 0 2zM21 10h-4a1 1 0 0 1 0-2h4a1 1 0 0 1 0 2z" fill="#949697"/><g transform="translate(0 20)"><rect fill="#E1E4E1" width="46" height="18" rx="1"/><path d="M1.364.23L22.97 8.989l22.21 7.064a.995.995 0 0 1 .65 1.252 1.01 1.01 0 0 1-.953.704L1 18.325c-.552.004-1-.457-1-1.03V1.187C0 .614.448.153 1 .157c.125 0 .248.026.364.074z" fill="#D3DAD8"/><circle fill="#72C472" cx="37" cy="9" r="2"/><path d="M11 10H7a1 1 0 1 1 0-2h4a1 1 0 0 1 0 2zM21 10h-4a1 1 0 0 1 0-2h4a1 1 0 0 1 0 2z" fill="#949697"/></g><g transform="translate(0 40)"><rect fill="#E1E4E1" width="46" height="18" rx="1"/><path d="M1.364.23L22.97 8.989l22.21 7.064a.995.995 0 0 1 .65 1.252 1.01 1.01 0 0 1-.953.704L1 18.325c-.552.004-1-.457-1-1.03V1.187C0 .614.448.153 1 .157c.125 0 .248.026.364.074z" fill="#D3DAD8"/><circle fill="#72C472" cx="37" cy="9" r="2"/><path d="M11 10H7a1 1 0 1 1 0-2h4a1 1 0 0 1 0 2zM21 10h-4a1 1 0 0 1 0-2h4a1 1 0 0 1 0 2z" fill="#949697"/></g></g><g stroke="#FFF" stroke-linecap="round" stroke-width="3"><path d="M18.271 59.335h-8M20.343 42.174l-2.072-1.152M18.2 77.801l2.071-1.152M19.94 66.902l-6.967 1.906M12.873 49.838l6.967 1.907"/><g><path d="M83.148 59.335h8M81.077 42.174l2.071-1.152M83.22 77.801l-2.072-1.152M81.48 66.902l6.967 1.906M88.547 49.838l-6.967 1.907"/></g></g><path d="M45.562 3.258L6.673 26.894C3.797 28.644 2 31.951 2 35.558v46.884c0 3.607 1.798 6.917 4.673 8.664l38.888 23.636A8.539 8.539 0 0 0 50 116a8.525 8.525 0 0 0 4.436-1.257l38.89-23.637C96.203 89.358 98 86.048 98 82.442V35.558c0-3.606-1.797-6.914-4.673-8.664L54.435 3.258A8.511 8.511 0 0 0 50 2c-1.546 0-3.07.428-4.438 1.258zm0 0s0 0 0 0h0z" stroke="#0078D4" stroke-width="4"/></g></svg>
